app/public/logos/moonbeam.svg

<svg xmlns="http://www.w3.org/2000/svg" width="350pt" height="350pt" style="isolation:isolate" viewBox="0 0 350 350"><defs><clipPath id="a"><path d="M0 0h350v350H0z"/></clipPath></defs><g clip-path="url(#a)"><path d="M0 0h350v350H0z" style="fill:#958edd"/><path fill="#2B1D3C" d="M305.38 174.81C305.38 103.063 247.032 45 175 45S44.525 103.063 44.525 174.81c0 14.825 2.471 29.079 7.127 42.383 0 .095.285.855.285.855 1.901 5.892-7.317 8.173-7.317 11.689 0 5.512 19.386 4.751 19.386 11.118 0 5.607-19.196 7.318-19.196 12.924 0 7.793 42.478 5.037 43.048 11.784.38 5.131-14.634 5.512-14.729 11.023-.19 8.838 57.967 5.892 57.967 11.784 0 4.466-26.418 2.851-26.418 8.077 0 5.227 34.781 8.553 73.173 8.553s64.81-4.276 64.81-8.838-24.708-3.611-24.138-7.792c.856-7.222 55.688-3.516 55.688-11.879 0-4.371-15.11-5.416-14.54-10.168.665-6.747 45.804-5.702 45.804-12.639 0-5.511-22.332-6.842-22.332-12.544 0-5.796 22.332-5.606 22.142-11.023-.095-4.181-9.978-4.086-6.842-12.924 4.466-13.399 7.032-27.654 6.937-42.383m-41.433 36.871c-4.561 10.168-14.729 8.173-15.87 12.449-1.235 4.466 12.544 5.037 12.544 9.693 0 5.607-41.908 3.421-41.527 10.833.285 4.657 29.744 5.512 29.174 10.359-.856 7.127-45.71 3.516-46.09 10.358-.285 4.941 21.952 5.131 21.952 9.693 0 3.801-17.485 5.892-50.936 5.892-38.201 0-56.732-2.091-54.641-6.272 1.995-3.992 35.731-3.231 35.446-9.503-.381-6.272-60.059-4.467-61.864-10.548-1.521-5.037 19.576-6.082 19.48-10.929-.095-4.846-26.988-3.801-27.653-9.693-.38-3.896 14.064-3.611 13.399-8.552-.475-3.517-6.462-3.041-9.978-10.359-5.702-12.258-8.933-25.943-8.933-40.292 0-52.931 43.144-95.885 96.36-95.885s96.36 42.954 96.36 95.885c.19 13.019-2.471 25.468-7.223 36.871"/></g></svg>

<?xml version="1.0" encoding="UTF-8" standalone="no"?><!-- Generator: Gravit.io --><svg xmlns="http://www.w3.org/2000/svg" xmlns:xlink="http://www.w3.org/1999/xlink" style="isolation:isolate" viewBox="0 0 350 350" width="350pt" height="350pt"><defs><clipPath id="_clipPath_DSMflDFs3Q6iNtp1DC7nC2fRElBQyiuC"><rect width="350" height="350"/></clipPath></defs><g clip-path="url(#_clipPath_DSMflDFs3Q6iNtp1DC7nC2fRElBQyiuC)"><rect width="350" height="350" style="fill:rgb(149,142,221)"/><g><path d=" M 305.38 174.81 C 305.38 103.063 247.032 45 175 45 C 102.968 45 44.525 103.063 44.525 174.81 C 44.525 189.635 46.996 203.889 51.652 217.193 C 51.652 217.288 51.937 218.048 51.937 218.048 C 53.838 223.94 44.62 226.221 44.62 229.737 C 44.62 235.249 64.006 234.488 64.006 240.855 C 64.006 246.462 44.81 248.173 44.81 253.779 C 44.81 261.572 87.288 258.816 87.858 265.563 C 88.238 270.694 73.224 271.075 73.129 276.586 C 72.939 285.424 131.096 282.478 131.096 288.37 C 131.096 292.836 104.678 291.221 104.678 296.447 C 104.678 301.674 139.459 305 177.851 305 C 216.243 305 242.661 300.724 242.661 296.162 C 242.661 291.601 217.953 292.551 218.523 288.37 C 219.379 281.148 274.211 284.854 274.211 276.491 C 274.211 272.12 259.101 271.075 259.671 266.323 C 260.336 259.576 305.475 260.621 305.475 253.684 C 305.475 248.173 283.143 246.842 283.143 241.14 C 283.143 235.344 305.475 235.534 305.285 230.117 C 305.19 225.936 295.307 226.031 298.443 217.193 C 302.909 203.794 305.475 189.539 305.38 174.81 L 305.38 174.81 Z  M 263.947 211.681 C 259.386 221.849 249.218 219.854 248.077 224.13 C 246.842 228.596 260.621 229.167 260.621 233.823 C 260.621 239.43 218.713 237.244 219.094 244.656 C 219.379 249.313 248.838 250.168 248.268 255.015 C 247.412 262.142 202.558 258.531 202.178 265.373 C 201.893 270.314 224.13 270.504 224.13 275.066 C 224.13 278.867 206.645 280.958 173.194 280.958 C 134.993 280.958 116.462 278.867 118.553 274.686 C 120.548 270.694 154.284 271.455 153.999 265.183 C 153.618 258.911 93.94 260.716 92.135 254.635 C 90.614 249.598 111.711 248.553 111.615 243.706 C 111.52 238.86 84.627 239.905 83.962 234.013 C 83.582 230.117 98.026 230.402 97.361 225.461 C 96.886 221.944 90.899 222.42 87.383 215.102 C 81.681 202.844 78.45 189.159 78.45 174.81 C 78.45 121.879 121.594 78.925 174.81 78.925 C 228.026 78.925 271.17 121.879 271.17 174.81 C 271.36 187.829 268.699 200.278 263.947 211.681 L 263.947 211.681 Z " fill="rgb(43,29,60)"/></g></g></svg>
